X: 2329
T: Bag Of Spuds, The
R: reel
M: 4/4
K: Adorian
|:A2eA cAeA|ABcd (3efe dB|~G2 dG BGdB|GB~B2 GBdB|
A2eA cAeA|ABcd (3efe dB|ABcd eg~g2|dBGA BA ~A2:|
|:a2ea ~a2ea|agbg agef|(3gfe dc BGBd|gfga bgea|
a2ea ~a2(3efg|agbg agef|gedc BGBd|gedB BAA2:|

